client/public/img/misc/gas-waiting-icon.svg

<?xml version="1.0" encoding="UTF-8" standalone="no"?>
<svg
   viewBox="0 0 17 17"
   version="1.1"
   width="17"
   height="17"
   id="svg4"
   xmlns="http://www.w3.org/2000/svg"
   xmlns:svg="http://www.w3.org/2000/svg">
  <defs
     id="defs30" />
  <path
     id="circle32"
     style="fill:#ffffff;stroke-width:1.0593"
     d="M 7.7777819,0.44784594 A 5.1828488,5.1828488 0 0 0 3.2861022,5.5705549 5.1828488,5.1828488 0 0 0 3.3626578,6.4250286 5.1828488,5.1828488 0 0 0 2.5868032,6.7829566 5.1828488,5.1828488 0 0 0 0.39578948,13.235997 l 0.16137799,-0.0931 A 3.6279942,3.6279942 0 0 1 2.1668066,8.8208685 3.6279942,3.6279942 0 0 1 4.1529941,8.3388044 3.6279942,3.6279942 0 0 1 7.0246906,10.006375 L 7.4984784,9.7312045 A 1.0365697,1.0365697 0 0 1 7.4322721,9.3712077 1.0365697,1.0365697 0 0 1 8.2950232,8.3512184 V 7.8008782 A 3.627994,3.627994 0 0 1 4.8398844,4.1885 3.627994,3.627994 0 0 1 7.7777861,0.62991418 Z m 1.3820559,0 V 0.62991312 A 3.627994,3.627994 0 0 1 12.09774,4.188499 3.627994,3.627994 0 0 1 8.6426007,7.8112222 v 0.5399951 a 1.0365697,1.0365697 0 0 1 0.8627511,1.0199894 1.0365697,1.0365697 0 0 1 -0.066206,0.3599967 l 0.4737878,0.2751706 a 3.6279942,3.6279942 0 0 1 2.8716964,-1.6675706 3.6279942,3.6279942 0 0 1 1.986188,0.4820641 3.6279942,3.6279942 0 0 1 1.615845,4.3261655 l 0.165516,0.09517 A 5.1828488,5.1828488 0 0 0 14.350821,6.7829534 5.1828488,5.1828488 0 0 0 13.574967,6.4250255 5.1828488,5.1828488 0 0 0 13.651522,5.5705517 5.1828488,5.1828488 0 0 0 9.1598421,0.44784276 Z M 8.4688098,4.7078049 c -1.091706,0 -2.0961554,0.3814094 -2.8923857,1.0137829 a 3.2824708,3.2824708 0 0 0 0.748958,0.9393014 C 6.9137776,6.1958364 7.6565196,5.9160689 8.4688098,5.9160689 c 0.8155837,0 1.5621972,0.2804899 2.1517032,0.7489579 A 3.2824708,3.2824708 0 0 0 11.367402,5.7257254 C 10.570258,5.0905702 9.5631769,4.7078049 8.4688098,4.7078049 Z M 4.1364383,8.6843174 a 3.2824708,3.2824708 0 0 0 -0.2772379,0.012415 c -0.032351,0.2209911 -0.055857,0.4447534 -0.055857,0.6744753 0,1.9654423 1.2297752,3.6496203 2.9565231,4.3344403 A 3.2824708,3.2824708 0 0 0 7.2026212,12.58635 C 5.9184562,12.083389 5.0136763,10.838738 5.0136763,9.3712077 c 0,-0.168023 0.016398,-0.3309518 0.039311,-0.4924082 A 3.2824708,3.2824708 0 0 0 4.1364436,8.6843184 Z m 8.6647437,0 a 3.2824708,3.2824708 0 0 0 -0.916544,0.1944811 c 0.02291,0.1614564 0.03931,0.3243852 0.03931,0.4924082 0,1.4638483 -0.899565,2.7076523 -2.1786001,3.2130733 a 3.2824708,3.2824708 0 0 0 0.4406861,1.119298 c 1.722606,-0.686822 2.948247,-2.369914 2.948247,-4.3323713 0,-0.2297219 -0.02351,-0.4534842 -0.05587,-0.6744754 A 3.2824708,3.2824708 0 0 0 12.801177,8.6843163 Z M 7.6722661,10.0312 7.2046847,10.302233 a 3.6279942,3.6279942 0 0 1 -1.4110214,4.802022 3.6279942,3.6279942 0 0 1 -4.5454721,-0.76551 l -0.161378,0.0931 a 5.1828488,5.1828488 0 0 0 6.6826934,1.328263 5.1828488,5.1828488 0 0 0 0.7034409,-0.49034 5.1828488,5.1828488 0 0 0 0.6951656,0.49034 5.1828488,5.1828488 0 0 0 6.6826939,-1.328263 l -0.161378,-0.0931 A 3.6279942,3.6279942 0 0 1 11.143957,15.104255 3.6279942,3.6279942 0 0 1 9.7391425,10.30637 L 9.2653536,10.033269 A 1.0365697,1.0365697 0 0 1 8.4688098,10.407749 1.0365697,1.0365697 0 0 1 7.6722661,10.0312 Z" />
</svg>

<svg xmlns="http://www.w3.org/2000/svg" width="17" height="17"><path d="M7.778.448A5.18 5.18 0 0 0 3.286 5.57a5 5 0 0 0 .077.854 5 5 0 0 0-.776.358 5.18 5.18 0 0 0-2.191 6.453l.161-.093a3.63 3.63 0 0 1 1.61-4.322 3.63 3.63 0 0 1 1.986-.482 3.63 3.63 0 0 1 2.872 1.667l.473-.275a1 1 0 0 1-.066-.36 1.04 1.04 0 0 1 .863-1.02V7.8A3.63 3.63 0 0 1 4.84 4.189 3.63 3.63 0 0 1 7.778.629Zm1.382 0V.63a3.63 3.63 0 0 1 2.938 3.558 3.63 3.63 0 0 1-3.455 3.623v.54a1.04 1.04 0 0 1 .862 1.02 1 1 0 0 1-.066.36l.474.275a3.63 3.63 0 0 1 2.872-1.667 3.63 3.63 0 0 1 1.986.482 3.63 3.63 0 0 1 1.616 4.326l.165.095a5.18 5.18 0 0 0-2.201-6.459 5 5 0 0 0-.776-.358 5 5 0 0 0 .077-.854A5.18 5.18 0 0 0 9.16.448m-.691 4.26a4.64 4.64 0 0 0-2.893 1.014 3.3 3.3 0 0 0 .75.939 3.44 3.44 0 0 1 2.143-.745c.815 0 1.562.28 2.152.749a3.3 3.3 0 0 0 .746-.94A4.64 4.64 0 0 0 8.47 4.709M4.136 8.684a3 3 0 0 0-.277.013 5 5 0 0 0-.056.674c0 1.966 1.23 3.65 2.957 4.335a3.3 3.3 0 0 0 .443-1.12 3.44 3.44 0 0 1-2.19-3.215c0-.168.017-.33.04-.492a3.3 3.3 0 0 0-.917-.195m8.665 0a3.3 3.3 0 0 0-.916.195 3.445 3.445 0 0 1-2.14 3.705 3.3 3.3 0 0 0 .441 1.12 4.675 4.675 0 0 0 2.948-4.333c0-.23-.023-.453-.056-.674a3 3 0 0 0-.277-.013m-5.129 1.347-.467.271a3.63 3.63 0 0 1-1.411 4.802 3.63 3.63 0 0 1-4.546-.765l-.161.093A5.18 5.18 0 0 0 7.77 15.76a5 5 0 0 0 .703-.49 5 5 0 0 0 .695.49 5.18 5.18 0 0 0 6.683-1.328l-.162-.093a3.63 3.63 0 0 1-4.545.765 3.63 3.63 0 0 1-1.405-4.798l-.474-.273a1.04 1.04 0 0 1-.796.375 1.04 1.04 0 0 1-.797-.377" style="fill:#fff;stroke-width:1.0593"/></svg>
